X:1
T:Es ist ein Ros entsprungen
T:Es ist ein Ros entsprungen
%%score [ 1 2 3 4 ]
L:1/8
M:2/2
K:G
V:1 treble nm="Soprano" snm="S"
V:2 treble nm="Alto" snm="A"
V:3 treble-8 nm="Tenor" snm="T"
V:4 bass nm="Bass" snm="B"
V:1
 z4 d4 | d2 d2 e2 d2 |[M:3/2] d4 B4 c4 | B2 A4 G4 F2 |[M:2/2] G4 z4 :| z4 z2 B2 | A2 F2 G2 E2 | %7
w: 1. Es|ist ein Ros ent-|sprun- gen aus|ei- ner Wur- zel|zart,|||
w: wie|uns die Al- ten|sun- gen: von|Jes- se kam die|Art,|und|hat ein Blüm- lein|
w: 2. Das|Rös- lein, das ich|mei- ne, da-|von Je- sai- as|sagt,|||
w: hat|uns ge- bracht al-|lein- e Ma-|rie, die rei- ne|Magt;|aus|Got- tes ew'- gem|
w: 3. Das|Blüm- lein so _|klei- ne, das|duf- ted uns so|süss,|||
w: mit|sei- nem hel- len|Schei- ne ver-|teibt'd die Fins- ter-|nis;|wahr|Mensch und wah- rer|
 D4 z2 d2 | d2 d2 e2 d2 |[M:3/2] d4 B4 c4 | B2 A4 G4 F2 |[M:2/2] G8 :| %12
w: |||||
w: bracht mit-|ten im kal- ten|Win- ter wohl|zu der hal- ben|Nacht.|
w: |||||
w: Rat hat|sie ein Kind ge-|bo- ren wohl|zu der hal- ben|Nacht.|
w: |||||
w: Gott, hulf|uns aus al- len|Lei- den, ret-|tet von Sünd und|Tod.|
V:2
 z4 B4 | B2 G2 G2 G2 |[M:3/2] F4 E4 E4 | D2 D2 (E3 B,) D4 |[M:2/2] D4 z4 :| z4 z2 G2 | %6
w: 1. Es|ist ein Ros ent-|sprun- gen aus|ei- ner Wur- * zel|zart,||
w: wie|uns die Al- ten|sun- gen: von|Jes- se kam * die|Art,|und|
w: 2. Das|Rös- lein, das ich|mei- ne, da-|von Je- sai- * as|sagt,||
w: hat|uns ge- bracht al-|lein- e Ma-|rie, die rei- * ne|Magt;|aus|
w: 3. Das|Blüm- lein so _|klei- ne, das|duf- ted uns * so|süss,||
w: mit|sei- nem hel- len|Schei- ne ver-|teibt'd die Fins- * ter-|nis;|wahr|
 F2 D2 E2 ^C2 | (DE F2) z2 A2 | A2 B2 c2 B2 |[M:3/2] F4 E4 E4 | G2 E2 (F2 G2 A2) D2 |[M:2/2] D8 :| %12
w: ||||||
w: hat ein Blüm- lein|bracht _ _ mit-|ten im kal- ten|Win- ter wohl|zu der hal- * * ben|Nacht.|
w: ||||||
w: Got- tes ew'- gem|Rat _ _ hat|sie ein Kind ge-|bo- ren wohl|zu der hal- * * ben|Nacht.|
w: ||||||
w: Mensch und wah- rer|Gott, _ _ hulf|uns aus al- len|Lei- den, ret-|tet von Sünd * * und|Tod.|
V:3
 z4 d4 | d2 B2 c2 B2 |[M:3/2] A4 G4 G4 | B2 d2 (c2 B4) A2 |[M:2/2] B4 z4 :| z4 z2 d2 | %6
w: 1. Es|ist ein Ros ent-|sprun- gen aus|ei- ner Wur- * zel|zart,||
w: wie|uns die Al- ten|sun- gen: von|Jes- se kam * die|Art,|und|
w: 2. Das|Rös- lein, das ich|mei- ne, da-|von Je- sai- * as|sagt,||
w: hat|uns ge- bracht al-|lein- e Ma-|rie, die rei- * ne|Magt;|aus|
w: 3. Das|Blüm- lein so _|klei- ne, das|duf- ted uns * so|süss,||
w: mit|sei- nem hel- len|Schei- ne ver-|teibt'd die Fins- * ter-|nis;|wahr|
 c2 B2 B2 A2 | A4 z2 A2 | A2 B2 c2 B2 |[M:3/2] A4 ^G4 A4 | d2 c2 B4 A4 |[M:2/2] B8 :| %12
w: ||||||
w: hat ein Blüm- lein|bracht mit-|ten im kal- ten|Win- ter wohl|zu der hal- ben|Nacht.|
w: ||||||
w: Got- tes ew'- gem|Rat hat|sie ein Kind ge-|bo- ren wohl|zu der hal- ben|Nacht.|
w: ||||||
w: Mensch und wah- rer|Gott, hulf|uns aus al- len|Lei- den, ret-|tet von Sünd und|Tod.|
V:4
 z4 G,4 | G,2 G,2 C2 G,2 |[M:3/2] D,4 E,4 C,4 | G,2 F,2 E,4 D,4 |[M:2/2] G,,4 z4 :| z4 z2 G,2 | %6
w: 1. Es|ist ein Ros ent-|sprun- gen aus|ei- ner Wur- zel|zart,||
w: wie|uns die Al- ten|sun- gen: von|Jes- se kam die|Art,|und|
w: 2. Das|Rös- lein, das ich|mei- ne, da-|von Je- sai- as|sagt,||
w: hat|uns ge- bracht al-|lein- e Ma-|rie, die rei- ne|Magt;|aus|
w: 3. Das|Blüm- lein so _|klei- ne, das|duf- ted uns so|süss,||
w: mit|sei- nem hel- len|Schei- ne ver-|teibt'd die Fins- ter-|nis;|wahr|
 A,2 B,2 G,2 A,2 | D,4 z2 D,2 | F,2 G,2 C,2 G,2 |[M:3/2] D,4 E,4 A,,4 | B,,2 C,2 D,4 D,4 | %11
w: |||||
w: hat ein Blüm- lein|bracht mit-|ten im kal- ten|Win- ter wohl|zu der hal- ben|
w: |||||
w: Got- tes ew'- gem|Rat hat|sie ein Kind ge-|bo- ren wohl|zu der hal- ben|
w: |||||
w: Mensch und wah- rer|Gott, hulf|uns aus al- len|Lei- den, ret-|tet von Sünd und|
[M:2/2] G,,8 :| %12
w: |
w: Nacht.|
w: |
w: Nacht.|
w: |
w: Tod.|

